UI/Misc/SVG/projects_solid_16px.svg

<svg width="16" height="16" viewBox="0 0 16 16" fill="none" xmlns="http://www.w3.org/2000/svg">
<path d="M12 9.99999V2.99999H8.44C8.2971 2.59986 8.03398 2.2537 7.68667 2.00895C7.33937 1.76419 6.92488 1.63281 6.5 1.63281C6.07512 1.63281 5.66063 1.76419 5.31333 2.00895C4.96602 2.2537 4.7029 2.59986 4.56 2.99999H1V9.99999C1 10.5304 1.21071 11.0391 1.58579 11.4142C1.96086 11.7893 2.46957 12 3 12H10C10.5304 12 11.0391 11.7893 11.4142 11.4142C11.7893 11.0391 12 10.5304 12 9.99999ZM10 9.49999H3V7.99999H10V9.49999ZM10 6.49999H3V4.99999H10V6.49999ZM15 6.99999V13C15 13.5304 14.7893 14.0391 14.4142 14.4142C14.0391 14.7893 13.5304 15 13 15H6V13.5H13.5V6.99999H15Z" fill="#0F1621"/>
</svg>

<svg xmlns="http://www.w3.org/2000/svg" width="16" height="16" viewBox="0 0 16 16"><rect width="16" height="16" style="fill:none"/><path d="M12,10V3H8.44A2.06,2.06,0,0,0,4.56,3H1v7a2,2,0,0,0,2,2h7A2,2,0,0,0,12,10Zm-2-.5H3V8h7Zm0-3H3V5h7ZM15,7v6a2,2,0,0,1-2,2H6V13.5h7.5V7Z"/></svg>
